svgs/sharp-regular/grid-4.svg

<svg xmlns="http://www.w3.org/2000/svg" viewBox="0 0 448 512"><!--! Font Awesome Pro 6.6.0 by @fontawesome - https://fontawesome.com License - https://fontawesome.com/license (Commercial License) Copyright 2024 Fonticons, Inc. --><path d="M0 32l89.6 0 0 89.6L0 121.6 0 32zM0 151.5l89.6 0 0 89.6L0 241.1l0-89.6zM89.6 270.9l0 89.6L0 360.5l0-89.6 89.6 0zM0 390.4l89.6 0 0 89.6L0 480l0-89.6zM119.5 32l89.6 0 0 89.6-89.6 0 0-89.6zm0 119.5l89.6 0 0 89.6-89.6 0 0-89.6zm89.6 119.5l0 89.6-89.6 0 0-89.6 89.6 0zM119.5 390.4l89.6 0 0 89.6-89.6 0 0-89.6zM328.5 32l0 89.6-89.6 0 0-89.6 89.6 0zm0 119.5l0 89.6-89.6 0 0-89.6 89.6 0zM238.9 270.9l89.6 0 0 89.6-89.6 0 0-89.6zm89.6 119.5l0 89.6-89.6 0 0-89.6 89.6 0zM358.4 32L448 32l0 89.6-89.6 0 0-89.6zm0 119.5l89.6 0 0 89.6-89.6 0 0-89.6zM448 270.9l0 89.6-89.6 0 0-89.6 89.6 0zM358.4 390.4l89.6 0 0 89.6-89.6 0 0-89.6z"/></svg>

<svg xmlns="http://www.w3.org/2000/svg" viewBox="0 0 448 512"><!--! Font Awesome Pro 6.4.2 by @fontawesome - https://fontawesome.com License - https://fontawesome.com/license (Commercial License) Copyright 2023 Fonticons, Inc. --><path d="M0 32H89.6v89.6H0V32zM0 151.5H89.6v89.6H0V151.5zM89.6 270.9v89.6H0V270.9H89.6zM0 390.4H89.6V480H0V390.4zM119.5 32h89.6v89.6H119.5V32zm0 119.5h89.6v89.6H119.5V151.5zm89.6 119.5v89.6H119.5V270.9h89.6zM119.5 390.4h89.6V480H119.5V390.4zM328.5 32v89.6H238.9V32h89.6zm0 119.5v89.6H238.9V151.5h89.6zM238.9 270.9h89.6v89.6H238.9V270.9zm89.6 119.5V480H238.9V390.4h89.6zM358.4 32H448v89.6H358.4V32zm0 119.5H448v89.6H358.4V151.5zM448 270.9v89.6H358.4V270.9H448zM358.4 390.4H448V480H358.4V390.4z"/></svg>
